fs/road_cone_24_filled.svg

<svg viewBox="0 0 24 24" fill="none" xmlns="http://www.w3.org/2000/svg" height="1em" width="1em">
  <path d="M11.1941 2C10.6171 2 10.1152 2.39429 9.97881 2.95518C9.28789 5.79703 8.44436 8.90413 7.59381 12H12.75C13.1642 12 13.5 12.3358 13.5 12.75C13.5 13.1642 13.1642 13.5 12.75 13.5H7.18121C6.99675 14.1703 6.81307 14.8379 6.63167 15.5H13.75C14.1642 15.5 14.5 15.8358 14.5 16.25C14.5 16.6642 14.1642 17 13.75 17H6.22237C5.897 18.1983 5.58313 19.3708 5.29003 20.5H2.75C2.33579 20.5 2 20.8358 2 21.25C2 21.6642 2.33579 22 2.75 22H21.25C21.6642 22 22 21.6642 22 21.25C22 20.8358 21.6642 20.5 21.25 20.5H18.7095L14.0237 2.92792C13.8777 2.38073 13.3822 2 12.8159 2H11.1941Z" fill="#212121"/>
</svg>

<svg viewBox="0 0 24 24" fill="none" xmlns="http://www.w3.org/2000/svg" height="1em" width="1em">
  <path d="M11.194 2a1.25 1.25 0 0 0-1.215.955C9.288 5.797 8.444 8.905 7.594 12h5.156a.75.75 0 0 1 0 1.5H7.181l-.55 2h7.119a.75.75 0 0 1 0 1.5H6.222c-.325 1.198-.639 2.37-.932 3.5H2.75a.75.75 0 0 0 0 1.5h18.5a.75.75 0 0 0 0-1.5h-2.54L14.023 2.928A1.25 1.25 0 0 0 12.816 2h-1.622Z" fill="#212121"/>
</svg>
